src/Assets/image/loading_fish_down.svg

<svg fill="none" height="73" viewBox="0 0 28 73" width="28" xmlns="http://www.w3.org/2000/svg"><path clip-rule="evenodd" d="m22.511 71.7306c-2.5806-.9133-5.0712-2.1019-7.3291-3.6346-1.6979 1.2-3.7508 2.034-5.80676 1.769-.68601-.089-1.34726-.296-2.00929-.5032-.47007-.1472-.94052-.2944-1.42051-.3997-1.15662-.2526-2.48341-.2151-3.37018.5656.04976-.3808.20905-.7241.43717-1.0271-.02276.0062-.04552.0124-.06829.0188l-.02035-.0438c.05582-.0264.11209-.0519.16878-.0764.34547-.4173.82052-.7525 1.30846-.997.34988-.1752.71516-.3199 1.08015-.4644.54225-.2148 1.08385-.4293 1.57333-.7432.14625-.0939.28933-.1972.43256-.3007.41834-.3021.83784-.605 1.34058-.6769.53738-.0779 1.04751.1229 1.56285.3258.3309.1303.664.2614 1.0079.3202.3052.0521.6188.0414.9208-.0244-2.58587-2.3744-4.64955-5.3416-5.71456-8.6784l-.00076-.0006c-1.30505-4.0885-1.00425-8.5087.29078-12.5547.10471-.3277.21538-.6556.33215-.9826-.03461-.0855-.07003-.1704-.10618-.2549-.38688-.9043-.85522-1.7694-1.3236-2.6346-.40821-.754-.81646-1.5081-1.17087-2.2883-1.43684-3.1616-1.9552-6.7325-1.47767-10.169.82199-.139 1.70351.1423 2.29424.7315.67712-1.0952 1.09875-2.3519 1.18852-3.6366.11311-1.6126-.41181-3.4094-1.79721-4.2475-1.12496-.6805-2.80928-.3152-3.48323.7081.04011.1001.09259.1966.15849.2879l-.03593.0311c-.06498-.0763-.12078-.1596-.16724-.2477-.13078.2197-.21602.4677-.24146.7404-.9668776-1.6215.19271-3.9567 2.01058-4.457 1.81786-.5002 3.83554.6147 4.70778 2.288-.04268-3.012 1.32814-6.0121 3.63267-7.9491.7494-.6296 1.5882-1.1509 2.4248-1.671 1.2094-.7516 2.4145-1.50067 3.3393-2.5701 1.8575-2.14705 2.2041-5.34673 2.1722-8.1886648 2.598 2.9316448 3.1812 7.4797848 1.4061 10.9643648-.5339 1.048-1.2492 1.9867-1.9638 2.9245-.1933.2536-.3865.5072-.576.7628-.9741 1.3135-1.8581 2.6935-2.6455 4.1267.8965-1.0671 1.9355-2.0234 2.9758-2.9809.7433-.6841 1.4873-1.3688 2.1803-2.095 2.1612-2.2658 3.924-5.42755 3.0315-8.43396 1.7538 3.17935 1.2961 7.06536.7886 10.65806-.3954 2.7992-.8079 5.6536-2.0646 8.1848-.1623.3271-.3384.648-.5144.9687v.0001c-.3612.6582-.722 1.3156-.9619 2.0251-.2278.6734-.3415 1.3773-.4551 2.0812-.1121.6937-.2241 1.3874-.4454 2.0519-.1549.4651-.357.9019-.5968 1.3157.0477-.0757.0948-.1518.1411-.2282.1667-.2984.3278-.6042.4167-.9379l.0474.0078c-.0566.3482-.187.6765-.3339.9919-.2996.6311-.6798 1.2195-1.1007 1.7755-.6873.9186-1.5939 1.6203-2.4973 2.3195h-.0001v.0001h-.0001v.0001h-.0001v.0001h-.0001v.0001h-.0001l-.0001.0001-.0001.0001h-.0001v.0001h-.0001v.0001h-.0001v.0001h-.0001v.0001h-.0001-.0001v.0001c-.4772.3693-.9535.7379-1.396 1.1375-2.0679 1.8503-3.5544 4.3451-4.1636 7.0555l-.0295-.0062c-.0069.0437-.0134.0874-.0197.131.1323 1.7504.5204 3.4826 1.1413 5.1266.0562.0165.1126.0325.1694.048l-.0011.0135c-.0499-.0035-.1-.0081-.1502-.0138.4052 1.0639.9079 2.0906 1.502 3.0611l.0524.0015c-.2803-.5856-.4798-1.1169-.4996-1.6971-.0394-1.1834.6574-2.2893 1.4702-3.148.4252-.4496.873-.8074 1.3371-1.1784.178-.1422.3583-.2864.5407-.4384.6584-.5484 1.0283-1.4395 1.1126-2.1607.0445 1.4567.0733 2.9856-.5899 4.2825-.3512.6854-.8716 1.2564-1.3931 1.8286v.0001c-.2774.3043-.5551.6091-.8079.9316-.4243.5418-.9642 1.4871-.8016 2.2336.2693.4.5548.7892.8559 1.166l.0778-.0035c-.0225.0056-.045.011-.0677.0161.1974.2466.4016.4879.6123.7235.2171.2428.4405.4794.6688.711l.1407-.0195c.0607-.0085.1185-.0165.1695-.0233-.0912.0276-.1835.0532-.2769.0766.1109.1121.223.223.3361.333l.014-.0053.0066.0122-.0087.0047c.7858.7631 1.6198 1.4778 2.4534 2.1923l.2887.2475c-.3727-1.4432-.3015-3.0415.5085-4.2802.1804-.2755.4591-.4534.7385-.6318.074-.0473.148-.0945.2203-.1437.3749-.2553.7545-.5146 1.0496-.8596.635-.7453.7867-1.7707.9305-2.7421l.0096-.0651c.1461-.9911.3586-2.0504 1.0896-2.7341l.0014-.0001c-.457.7147-.2404 1.4386.0139 2.249.082.2614.1692.5238.2566.7872l.0001.0001c.4706 1.4168.9502 2.861.6772 4.3072-.1624.8627-.5836 1.6521-1.003 2.438-.5007.9384-.9988 1.8718-1.0506 2.9193-.0396.7885.0904 1.6075.416 2.3296 1.0062 1.0131 1.9806 2.0582 2.9281 3.1266-.0014-.0235.0008-.0433.0068-.0588.0033-.0076.0038-.0161.0043-.0245.0007-.012.0014-.0237.0099-.0319.0178-.0177.0464-.0142.0703-.0082.2621.0617.486.2277.6829.4113l-.0007.0008c.2169.202.8554 1.0179.3518 1.0913.398.5672.7212 1.1749.8759 1.8473.2814 1.2225-.1859 2.7089-1.348 3.1792-.7046.2859-1.4908.1505-2.234-.0628-.0016.0085-.0043.0171-.0082.026-.0569.1291-.5117.0693-.6099.0469l.0015.0013c-.3729-.083-.5305-.1235-.8775-.2844-.208-.097-.2959-.1896-.2748-.2479.0112-.03.0432-.0473.0744-.0574.0241-.0077.0486-.013.0733-.0163zm-9.0355-18.2173c-.0745-.115-.1476-.2308-.2193-.3475l.0447-.0049c.0554.1151.1138.2323.1746.3524zm-10.03716-10.3376.00343.004c.06613.0904-.01931.5503-.09688.9678l-.00002.0001-.00002.0001-.00003.0002h-.00001l-.00004.0002c-.05555.299-.10705.5761-.09594.6801.06015.5592.15581 1.1753.34008 1.7066.22859.6578.88164 1.9095 1.77694 1.6806-.03082-2.6102-.82812-3.7661-1.92408-5.0357l-.00267-.0033z" fill="#89ccff" fill-rule="evenodd"/></svg>

<svg width="28" height="73" viewBox="0 0 28 73" fill="none" xmlns="http://www.w3.org/2000/svg">
<path fill-rule="evenodd" clip-rule="evenodd" d="M22.511 71.7306C19.9304 70.8173 17.4398 69.6287 15.1819 68.096C13.484 69.296 11.4311 70.13 9.37514 69.865C8.68913 69.776 8.02788 69.569 7.36585 69.3618C6.89578 69.2146 6.42533 69.0674 5.94534 68.9621C4.78872 68.7095 3.46193 68.747 2.57516 69.5277C2.62492 69.1469 2.78421 68.8036 3.01233 68.5006C2.98957 68.5068 2.96681 68.513 2.94404 68.5194L2.92369 68.4756C2.97951 68.4492 3.03578 68.4237 3.09247 68.3992C3.43794 67.9819 3.91299 67.6467 4.40093 67.4022C4.75081 67.227 5.11609 67.0823 5.48108 66.9378C6.02333 66.723 6.56493 66.5085 7.05441 66.1946C7.20066 66.1007 7.34374 65.9974 7.48697 65.8939C7.90531 65.5918 8.32481 65.2889 8.82755 65.217C9.36493 65.1391 9.87506 65.3399 10.3904 65.5428C10.7213 65.6731 11.0544 65.8042 11.3983 65.863C11.7035 65.9151 12.0171 65.9044 12.3191 65.8386C9.73323 63.4642 7.66955 60.497 6.60454 57.1602L6.60378 57.1596C5.29873 53.0711 5.59953 48.6509 6.89456 44.6049C6.99927 44.2772 7.10994 43.9493 7.22671 43.6223C7.1921 43.5368 7.15668 43.4519 7.12053 43.3674C6.73365 42.4631 6.26531 41.598 5.79693 40.7328C5.38872 39.9788 4.98047 39.2247 4.62606 38.4445C3.18922 35.2829 2.67086 31.712 3.14839 28.2755C3.97038 28.1365 4.8519 28.4178 5.44263 29.007C6.11975 27.9118 6.54138 26.6551 6.63115 25.3704C6.74426 23.7578 6.21934 21.961 4.83394 21.1229C3.70898 20.4424 2.02466 20.8077 1.35071 21.831C1.39082 21.9311 1.4433 22.0276 1.5092 22.1189L1.47327 22.15C1.40829 22.0737 1.35249 21.9904 1.30603 21.9023C1.17525 22.122 1.09001 22.37 1.06457 22.6427C0.0976924 21.0212 1.25728 18.686 3.07515 18.1857C4.89301 17.6855 6.91069 18.8004 7.78293 20.4737C7.74025 17.4617 9.11107 14.4616 11.4156 12.5246C12.165 11.895 13.0038 11.3737 13.8404 10.8536C15.0498 10.102 16.2549 9.35293 17.1797 8.2835C19.0372 6.13645 19.3838 2.93677 19.3519 0.0948352C21.9499 3.02648 22.5331 7.57462 20.758 11.0592C20.2241 12.1072 19.5088 13.0459 18.7942 13.9837C18.6009 14.2373 18.4077 14.4909 18.2182 14.7465C17.2441 16.06 16.3601 17.44 15.5727 18.8732C16.4692 17.8061 17.5082 16.8498 18.5485 15.8923C19.2918 15.2082 20.0358 14.5235 20.7288 13.7973C22.89 11.5315 24.6528 8.36975 23.7603 5.36334C25.5141 8.54269 25.0564 12.4287 24.5489 16.0214C24.1535 18.8206 23.741 21.675 22.4843 24.2062C22.322 24.5333 22.1459 24.8542 21.9699 25.1749L21.9699 25.175C21.6087 25.8332 21.2479 26.4906 21.008 27.2001C20.7802 27.8735 20.6665 28.5774 20.5529 29.2813C20.4408 29.975 20.3288 30.6687 20.1075 31.3332C19.9526 31.7983 19.7505 32.2351 19.5107 32.6489C19.5584 32.5732 19.6055 32.4971 19.6518 32.4207C19.8185 32.1223 19.9796 31.8165 20.0685 31.4828L20.1159 31.4906C20.0593 31.8388 19.9289 32.1671 19.782 32.4825C19.4824 33.1136 19.1022 33.702 18.6813 34.258C17.994 35.1766 17.0874 35.8783 16.184 36.5775L16.184 36.5775L16.184 36.5775L16.1839 36.5775L16.1839 36.5776L16.1839 36.5776L16.1839 36.5776L16.1838 36.5776L16.1838 36.5777L16.1838 36.5777L16.1838 36.5777L16.1837 36.5777L16.1837 36.5777L16.1837 36.5778L16.1837 36.5778L16.1836 36.5778L16.1836 36.5778L16.1836 36.5779L16.1835 36.5779L16.1835 36.5779L16.1835 36.5779L16.1835 36.5779L16.1834 36.578L16.1834 36.578L16.1834 36.578L16.1834 36.578L16.1833 36.5781L16.1833 36.5781L16.1833 36.5781L16.1833 36.5781L16.1832 36.5781L16.1832 36.5782L16.1832 36.5782L16.1831 36.5782L16.1831 36.5782L16.1831 36.5783L16.1831 36.5783L16.183 36.5783L16.183 36.5783L16.183 36.5783L16.183 36.5784L16.1829 36.5784L16.1829 36.5784L16.1829 36.5784L16.1829 36.5785L16.1828 36.5785L16.1828 36.5785L16.1828 36.5785L16.1827 36.5785L16.1827 36.5786C15.7055 36.9479 15.2292 37.3165 14.7867 37.7161C12.7188 39.5664 11.2323 42.0612 10.6231 44.7716L10.5936 44.7654C10.5867 44.8091 10.5802 44.8528 10.5739 44.8964C10.7062 46.6468 11.0943 48.379 11.7152 50.023C11.7714 50.0395 11.8278 50.0555 11.8846 50.071L11.8835 50.0845C11.8336 50.081 11.7835 50.0764 11.7333 50.0707C12.1385 51.1346 12.6412 52.1613 13.2353 53.1318L13.2877 53.1333C13.0074 52.5477 12.8079 52.0164 12.7881 51.4362C12.7487 50.2528 13.4455 49.1469 14.2583 48.2882C14.6835 47.8386 15.1313 47.4808 15.5954 47.1098C15.7734 46.9676 15.9537 46.8234 16.1361 46.6714C16.7945 46.123 17.1644 45.2319 17.2487 44.5107C17.2932 45.9674 17.322 47.4963 16.6588 48.7932C16.3076 49.4786 15.7872 50.0496 15.2657 50.6218L15.2657 50.6219C14.9883 50.9262 14.7106 51.231 14.4578 51.5535C14.0335 52.0953 13.4936 53.0406 13.6562 53.7871C13.9255 54.1871 14.211 54.5763 14.5121 54.9531L14.5899 54.9496C14.5674 54.9552 14.5449 54.9606 14.5222 54.9657C14.7196 55.2123 14.9238 55.4536 15.1345 55.6892C15.3516 55.932 15.575 56.1686 15.8033 56.4002L15.944 56.3807C16.0047 56.3722 16.0625 56.3642 16.1135 56.3574C16.0223 56.385 15.93 56.4106 15.8366 56.434C15.9475 56.5461 16.0596 56.657 16.1727 56.767L16.1867 56.7617L16.1933 56.7739L16.1846 56.7786C16.9704 57.5417 17.8044 58.2564 18.638 58.9709L18.9267 59.2184C18.554 57.7752 18.6252 56.1769 19.4352 54.9382C19.6156 54.6627 19.8943 54.4848 20.1737 54.3064C20.2477 54.2591 20.3217 54.2119 20.394 54.1627C20.7689 53.9074 21.1485 53.6481 21.4436 53.3031C22.0786 52.5578 22.2303 51.5324 22.3741 50.561L22.3837 50.4959C22.5298 49.5048 22.7423 48.4455 23.4733 47.7618L23.4747 47.7617C23.0177 48.4764 23.2343 49.2003 23.4886 50.0107C23.5706 50.2721 23.6578 50.5345 23.7452 50.7979L23.7453 50.798C24.2159 52.2148 24.6955 53.659 24.4225 55.1052C24.2601 55.9679 23.8389 56.7573 23.4195 57.5432C22.9188 58.4816 22.4207 59.415 22.3689 60.4625C22.3293 61.251 22.4593 62.07 22.7849 62.7921C23.7911 63.8052 24.7655 64.8503 25.713 65.9187C25.7116 65.8952 25.7138 65.8754 25.7198 65.8599C25.7231 65.8523 25.7236 65.8438 25.7241 65.8354C25.7248 65.8234 25.7255 65.8117 25.734 65.8035C25.7518 65.7858 25.7804 65.7893 25.8043 65.7953C26.0664 65.857 26.2903 66.023 26.4872 66.2066L26.4865 66.2074C26.7034 66.4094 27.3419 67.2253 26.8383 67.2987C27.2363 67.8659 27.5595 68.4736 27.7142 69.146C27.9956 70.3685 27.5283 71.8549 26.3662 72.3252C25.6616 72.6111 24.8754 72.4757 24.1322 72.2624C24.1306 72.2709 24.1279 72.2795 24.124 72.2884C24.0671 72.4175 23.6123 72.3577 23.5141 72.3353L23.5156 72.3366C23.1427 72.2536 22.9851 72.2131 22.6381 72.0522C22.4301 71.9552 22.3422 71.8626 22.3633 71.8043C22.3745 71.7743 22.4065 71.757 22.4377 71.7469C22.4618 71.7392 22.4863 71.7339 22.511 71.7306ZM13.4755 53.5133C13.401 53.3983 13.3279 53.2825 13.2562 53.1658L13.3009 53.1609C13.3563 53.276 13.4147 53.3932 13.4755 53.5133ZM3.43834 43.1757L3.44177 43.1797C3.5079 43.2701 3.42246 43.73 3.34489 44.1475L3.34487 44.1476L3.34485 44.1477L3.34482 44.1479L3.34481 44.1479L3.34477 44.1481C3.28922 44.4471 3.23772 44.7242 3.24883 44.8282C3.30898 45.3874 3.40464 46.0035 3.58891 46.5348C3.8175 47.1926 4.47055 48.4443 5.36585 48.2154C5.33503 45.6052 4.53773 44.4493 3.44177 43.1797L3.4391 43.1764L3.43834 43.1757Z" fill="#89CCFF"/>
</svg>
